X: 26328
T: Men Of The West, The
R: waltz
M: 3/4
K: Amajor
E2|A2 B2 A2|c3 B A2|f6|a4 f2|e2 c2 A2|A3 B c2|F6|F4 E2|
A3 G A2|c2 B2 A2|f6|a4 gf|e2 c2 A2|B2 A2 G2|A6-|A4||
cd|e2 c2 e2|e3 f g2|a6|a4 gf|e3 c A2|A2 B2 c2|F6-|F4 E2|
A2 G2 A2|c3 B A2|f6|a4 gf|e2 c2 A2|B3 A G2|A6-|A4||

